svgs/sharp-solid/quote-left.svg

<svg xmlns="http://www.w3.org/2000/svg" viewBox="0 0 448 512"><!--! Font Awesome Pro 6.4.0 by @fontawesome - https://fontawesome.com License - https://fontawesome.com/license (Commercial License) Copyright 2023 Fonticons, Inc. --><path d="M0 216C0 149.7 53.7 96 120 96h8 32v64H128h-8c-30.9 0-56 25.1-56 56v8H192V416H0V320 224v-8zm256 0c0-66.3 53.7-120 120-120h8 32v64H384h-8c-30.9 0-56 25.1-56 56v8H448V416H256V320 224v-8z"/></svg>

<svg xmlns="http://www.w3.org/2000/svg" viewBox="0 0 448 512"><!--! Font Awesome Pro 6.6.0 by @fontawesome - https://fontawesome.com License - https://fontawesome.com/license (Commercial License) Copyright 2024 Fonticons, Inc. --><path d="M0 216C0 149.7 53.7 96 120 96l8 0 32 0 0 64-32 0-8 0c-30.9 0-56 25.1-56 56l0 8 128 0 0 192L0 416l0-96 0-96 0-8zm256 0c0-66.3 53.7-120 120-120l8 0 32 0 0 64-32 0-8 0c-30.9 0-56 25.1-56 56l0 8 128 0 0 192-192 0 0-96 0-96 0-8z"/></svg>
